X: 1008
T: Gigue du père Mathias
M: 4/4
L: 1/4
I: scale 0.85
C: Adélard Thomassin
R: Reel
K: D
|:d/2e/2|"D"f/d/d/d/ BA/G/|"Em"F/A/A/F/ "A"E/c/d/e/|"D"f/d/d/d/ "Bm"BA/G/|"A7"F/A/B/c/ "D"d:|
|:(3d/c/B/|"D"A/F/F/F/ A/F/"G"d/B/|"D"A/F/D/F/ "A"E (3d/c/B/|"D"A/F/F/F/ A/F/"G"d/B/|"A"A/F/E/F/ "D"D:|
|:A|"A"A/c/e/c/ ~BA|A/c/e/c/ ~BA/A/|A/c/e/c/ ~BA/A/| "A"B/A/B/c/ "D"d:||

